components/brave_wallet_ui/page/screens/swap/assets/lp-icons/marinade.svg

<svg xmlns="http://www.w3.org/2000/svg" width="450" height="450" fill="none"><circle cx="225" cy="225" r="225" fill="#308D8A"/><path fill="#fff" fill-rule="evenodd" d="m350.189 253.668.004-.025c5.319-2.916 10.829-9.625 14.592-14.206 1.018-1.239 1.908-2.322 2.632-3.133a82.81 82.81 0 0 0 14.73-30.174c17.127-60.646-24.849-106.026-86.227-98.264-44.443 7.858-75.964 37.784-107.506 67.731h-.001c-10.045 9.538-20.093 19.077-30.561 27.907-4.268-1.948-10.147-2.765-14.944-3.432-2.231-.31-4.227-.588-5.719-.931-23.245-1.921-49.697 4.039-66.031 21.62-25.977 29.185-25.402 74.268 20.137 80.663a76.84 76.84 0 0 0 32.134-1.087c.298 1.403.874 2.748 1.449 4.091.358.836.715 1.671 1.006 2.52 1.814 4.369 3.174 8.949 4.535 13.528 1.982 6.668 3.964 13.337 7.344 19.359 1.12 1.462 2.613 2.155 4.149 2.261.957 1.057 2.295 1.77 3.967 1.838a455.955 455.955 0 0 1 107.729-31.917c20.785-3.938 41.603-5.872 62.55-7.819h.003c11.915-1.107 23.872-2.218 35.889-3.704 6.119.134 8.388-5.246 6.905-9.161.609-1.125.865-2.503.58-4.085-1.052-4.395-2.352-8.731-3.649-13.059v-.002h-.001l-.353-1.18-.294-.985c-.332-1.146-.669-2.292-1.005-3.439-1.45-4.936-2.903-9.886-4.044-14.915Zm-214.802 42.723c7.325-2.529 15.834-6.085 13.107-13.261a6.512 6.512 0 0 0-8.573-3.109c-20.393 10.87-49.122 15.028-67.813-1.148-12.573-15.721-1.504-39.52 11.088-51.954 16.91-14.426 40.595-17.408 62.073-13.362a216.101 216.101 0 0 1-10.495 7.422c-7.049 4.713-.139 15.127 6.929 10.811 19.745-12.418 36.522-28.572 53.31-44.736 10.568-10.176 21.141-20.356 32.461-29.611 25.62-21.7 58.903-41.816 93.73-36.668 17.364 3.564 36.035 11.424 44.252 28.174 13.82 25.363 7.959 59.141-9.484 81.356a68.224 68.224 0 0 1-12.123 12.17c-1.713-.511-3.686-.685-5.549-.849a68.358 68.358 0 0 1-2.064-.201c5.679-9.512 8.603-24.504 8.294-30.88.673-8.237-11.682-9.444-12.553-1.247a75.059 75.059 0 0 1-2.119 14.829 37.95 37.95 0 0 1-7.009 13.622 6.441 6.441 0 0 0-3.351 2.905c-4.844-.084-9.688-.06-14.528.072 3.697-8.382 5.742-18.288 4.829-22.459a75.922 75.922 0 0 0-3.148-15.226c-2.594-7.88-14.414-4.098-12.077 3.822 4.134 11.347 2.956 25.107-4.933 34.647a323.966 323.966 0 0 0-28.112 3.347 257.54 257.54 0 0 0-34.095 9.524 6.452 6.452 0 0 0-4.158 7.919 6.435 6.435 0 0 0 7.92 4.198c2.451-.741 4.892-1.507 7.332-2.272 6.035-1.893 12.061-3.783 18.209-5.292 11.597-2.728 22.846-3.913 34.591-4.621a6.047 6.047 0 0 0 2.381-.137c2.82-.155 5.672-.286 8.566-.409 11.723-.964 23.431-.31 35.087.457.119 3 1.184 6.399 2.151 9.483.569 1.814 1.103 3.518 1.391 4.969 1.001 3.324 1.912 6.678 2.823 10.031v.002l.001.001v.002l.001.001v.003c.85 3.128 1.7 6.255 2.621 9.354-10.462 1.222-20.961 2.252-31.464 3.282-26.676 2.618-53.379 5.238-79.592 11.003a470.399 470.399 0 0 0-56.865 15.265l-.051.017c-10.606 3.393-21.322 6.821-31.06 12.244-1.497-4.065-2.823-8.207-4.148-12.349l-.001-.001c-2.297-7.179-4.595-14.358-7.782-21.14Zm32.475-4.591c-5.682 2.212-14.023 5.46-10.042 12.574 3.755 4.899 8.8 2.241 13.705-.343 2.311-1.217 4.59-2.418 6.688-2.805a175.207 175.207 0 0 1 17.622-5.94c3.806-1.001 7.632-1.941 11.45-2.878l.003-.001.002-.001c1.464-.359 2.925-.718 4.384-1.08 7.861-2.455 4.138-14.453-3.782-12.038a233.913 233.913 0 0 0-38.43 11.88c-.497.202-1.035.412-1.6.632Z" clip-rule="evenodd"/></svg>

<svg width="450" height="450" viewBox="0 0 450 450" fill="none" xmlns="http://www.w3.org/2000/svg">
<circle cx="225" cy="225" r="225" fill="#308D8A"/>
<path fill-rule="evenodd" clip-rule="evenodd" d="M350.189 253.668L350.193 253.643C355.512 250.727 361.022 244.018 364.785 239.437C365.803 238.198 366.693 237.115 367.417 236.304C374.336 227.358 379.349 217.088 382.147 206.13C399.274 145.484 357.298 100.104 295.92 107.866C251.477 115.724 219.956 145.65 188.414 175.597L188.413 175.597C178.368 185.135 168.32 194.674 157.852 203.504C153.584 201.556 147.705 200.739 142.908 200.072C140.677 199.762 138.681 199.484 137.189 199.141C113.944 197.22 87.4923 203.18 71.1578 220.761C45.181 249.946 45.756 295.029 91.2946 301.424C101.981 303.335 112.932 302.957 123.429 300.337C123.727 301.74 124.303 303.085 124.878 304.428C125.236 305.264 125.593 306.099 125.884 306.948C127.698 311.317 129.058 315.897 130.419 320.476C132.401 327.144 134.383 333.813 137.763 339.835C138.883 341.297 140.376 341.99 141.912 342.096C142.869 343.153 144.207 343.866 145.879 343.934C180.336 328.894 216.52 318.174 253.608 312.017C274.393 308.079 295.211 306.145 316.158 304.198L316.158 304.198L316.159 304.198L316.159 304.198L316.16 304.198L316.16 304.198L316.161 304.198L316.161 304.198C328.076 303.091 340.033 301.98 352.05 300.494C358.169 300.628 360.438 295.248 358.955 291.333C359.564 290.208 359.82 288.83 359.535 287.248C358.483 282.853 357.183 278.517 355.886 274.189L355.886 274.188L355.886 274.188L355.886 274.188L355.886 274.188L355.886 274.187L355.886 274.187L355.885 274.187C355.768 273.794 355.65 273.4 355.532 273.007C355.434 272.679 355.336 272.35 355.238 272.022C354.906 270.876 354.569 269.73 354.233 268.583C352.783 263.647 351.33 258.697 350.189 253.668ZM135.387 296.391C142.712 293.862 151.221 290.306 148.494 283.13C147.756 281.593 146.446 280.406 144.843 279.825C143.24 279.244 141.473 279.314 139.921 280.021C119.528 290.891 90.7988 295.049 72.1081 278.873C59.5355 263.152 70.6036 239.353 83.196 226.919C100.106 212.493 123.791 209.511 145.269 213.557C141.833 216.138 138.339 218.619 134.774 220.979C127.725 225.692 134.635 236.106 141.703 231.79C161.448 219.372 178.225 203.218 195.013 187.054C205.581 176.878 216.154 166.698 227.474 157.443C253.094 135.743 286.377 115.627 321.204 120.775C338.568 124.339 357.239 132.199 365.456 148.949C379.276 174.312 373.415 208.09 355.972 230.305C352.46 234.856 348.387 238.945 343.849 242.475C342.136 241.964 340.163 241.79 338.3 241.626L338.3 241.626C337.589 241.564 336.895 241.503 336.236 241.425C341.915 231.913 344.839 216.921 344.53 210.545C345.203 202.308 332.848 201.101 331.977 209.298C331.767 214.299 331.057 219.267 329.858 224.127C328.472 229.097 326.087 233.732 322.849 237.749C321.766 238.16 320.815 238.855 320.094 239.761C319.87 240.043 319.671 240.342 319.498 240.654C314.654 240.57 309.81 240.594 304.97 240.726C308.667 232.344 310.712 222.438 309.799 218.267C309.274 213.097 308.218 207.995 306.651 203.041C304.057 195.161 292.237 198.943 294.574 206.863C298.708 218.21 297.53 231.97 289.641 241.51C280.233 242.215 270.854 243.331 261.529 244.857C249.959 247.246 238.567 250.428 227.434 254.381C225.852 254.908 224.536 256.027 223.761 257.503C222.986 258.98 222.812 260.699 223.276 262.3C223.791 263.892 224.906 265.221 226.385 266.005C227.864 266.788 229.589 266.965 231.196 266.498C233.647 265.757 236.088 264.991 238.528 264.226C244.563 262.333 250.589 260.443 256.737 258.934C268.334 256.206 279.583 255.021 291.328 254.313C292.131 254.429 292.926 254.376 293.709 254.176C296.529 254.021 299.381 253.89 302.275 253.767C313.998 252.803 325.706 253.457 337.362 254.224C337.481 257.224 338.546 260.623 339.513 263.707L339.513 263.707C340.082 265.521 340.616 267.225 340.904 268.676C341.905 272 342.816 275.354 343.727 278.707L343.727 278.708L343.727 278.709L343.728 278.71L343.728 278.711L343.728 278.711L343.728 278.712L343.729 278.713L343.729 278.716C344.579 281.844 345.429 284.971 346.35 288.07C335.888 289.292 325.389 290.322 314.886 291.352C288.21 293.97 261.507 296.59 235.294 302.355C216.039 306.251 197.047 311.349 178.429 317.62L178.378 317.637C167.772 321.03 157.056 324.458 147.318 329.881C145.821 325.816 144.495 321.674 143.17 317.532L143.169 317.531L143.169 317.531C140.872 310.352 138.574 303.173 135.387 296.391ZM167.862 291.8C162.18 294.012 153.839 297.26 157.82 304.374C161.575 309.273 166.62 306.615 171.525 304.031C173.836 302.814 176.115 301.613 178.213 301.226C183.978 298.935 189.86 296.953 195.835 295.286C199.641 294.285 203.467 293.345 207.285 292.408L207.285 292.408L207.285 292.408L207.288 292.407L207.29 292.406C208.754 292.047 210.215 291.688 211.674 291.326C219.535 288.871 215.812 276.873 207.892 279.288C194.765 282.137 181.907 286.112 169.462 291.168C168.965 291.37 168.427 291.58 167.862 291.8Z" fill="white"/>
</svg>
